lib/brands/icons/badoo.svg

<svg xmlns="http://www.w3.org/2000/svg" fill="none" aria-hidden="true" viewBox="0 0 48 48"><g id="badoo-Icon"><path id="bg" fill="#7845F5" d="M3 17C3 12.0995 3 9.64931 3.95369 7.77758C4.79258 6.13116 6.13116 4.79258 7.77758 3.95369C9.64931 3 12.0995 3 17 3H31C35.9005 3 38.3507 3 40.2224 3.95369C41.8688 4.79258 43.2074 6.13116 44.0463 7.77758C45 9.64931 45 12.0995 45 17V31C45 35.9005 45 38.3507 44.0463 40.2224C43.2074 41.8688 41.8688 43.2074 40.2224 44.0463C38.3507 45 35.9005 45 31 45H17C12.0995 45 9.64931 45 7.77758 44.0463C6.13116 43.2074 4.79258 41.8688 3.95369 40.2224C3 38.3507 3 35.9005 3 31V17Z"/><path id="heart" fill="#F79FEE" d="M38.875 21.375C38.875 30.125 31.875 37.1251 24 37.1251C16.125 37.1251 9.125 30.125 9.125 21.3751C9.125 13.5979 17.7509 9.55338 23.125 15.8396L23.5625 17.0001H24.4375C24.4375 17.0001 24.8408 15.8396 24.875 15.8396C30.2491 9.55338 38.875 13.5979 38.875 21.375Z"/><path id="smile" fill="#7845F5" fill-rule="evenodd" d="M18.5312 21.2426C18.5312 24.2629 20.9797 26.7113 24 26.7113C27.0203 26.7113 29.4688 24.2629 29.4688 21.2426H32.5312C32.5312 25.9542 28.7117 29.7738 24 29.7738C19.2883 29.7738 15.4688 25.9542 15.4688 21.2426H18.5312Z" clip-rule="evenodd"/></g></svg>

<svg xmlns="http://www.w3.org/2000/svg" fill="none" aria-hidden="true" viewBox="0 0 48 48"><path fill="#7845F5" d="M3 17c0-4.9 0-7.35.954-9.222a8.75 8.75 0 0 1 3.824-3.824C9.649 3 12.1 3 17 3h14c4.9 0 7.35 0 9.222.954a8.75 8.75 0 0 1 3.824 3.824C45 9.649 45 12.1 45 17v14c0 4.9 0 7.35-.954 9.222a8.75 8.75 0 0 1-3.824 3.824C38.351 45 35.9 45 31 45H17c-4.9 0-7.35 0-9.222-.954a8.75 8.75 0 0 1-3.824-3.824C3 38.351 3 35.9 3 31V17Z"/><path fill="#F79FEE" d="M38.875 21.375c0 8.75-7 15.75-14.875 15.75s-14.875-7-14.875-15.75c0-7.777 8.626-11.822 14-5.535l.438 1.16h.875s.403-1.16.437-1.16c5.374-6.287 14-2.242 14 5.535Z"/><path fill="#7845F5" fill-rule="evenodd" d="M18.531 21.243a5.469 5.469 0 0 0 10.938 0h3.062a8.531 8.531 0 0 1-17.062 0h3.062Z" clip-rule="evenodd"/></svg>
